Sources/FrostedUI/Resources/Icons.xcassets/trash16.imageset/trash-16.svg

<svg width="16" height="16" viewBox="0 0 16 16" fill="none" xmlns="http://www.w3.org/2000/svg" data-fui-icon="true">
  <path
    d="M8.68848 0C9.95035 1.34138e-05 11.0504 0.858808 11.3564 2.08301L11.5859 3H15.25C15.6642 3 16 3.33579 16 3.75C16 4.16421 15.6642 4.5 15.25 4.5H14.6621L13.5205 13.6787L13.5195 13.6777C13.4119 14.9874 12.3189 16 11 16H5C3.68109 16 2.58706 14.9874 2.47949 13.6777L1.33789 4.5H0.75C0.335786 4.5 0 4.16421 0 3.75C0 3.33579 0.335786 3 0.75 3H4.41406L4.64355 2.08301C4.9496 0.858808 6.04965 1.34137e-05 7.31152 0H8.68848ZM3.96777 13.4932C3.96958 13.5077 3.9717 13.5225 3.97266 13.5371C4.00804 14.0787 4.45721 14.5 5 14.5H11C11.5428 14.5 11.992 14.0787 12.0273 13.5371L12.0322 13.4932L13.1514 4.5H2.84863L3.96777 13.4932ZM7.31152 1.5C6.73795 1.50001 6.23775 1.89082 6.09863 2.44727L5.95996 3H10.04L9.90137 2.44727C9.76226 1.89082 9.26205 1.50001 8.68848 1.5H7.31152Z"
    fill="currentColor"
  />
</svg>

<svg xmlns="http://www.w3.org/2000/svg" width="16" height="16" fill="none" data-fui-icon="true" viewBox="0 0 16 16"><path fill="currentColor" d="M8.688 0a2.75 2.75 0 0 1 2.668 2.083l.23.917h3.664a.75.75 0 0 1 0 1.5h-.588l-1.142 9.179v-.001A2.53 2.53 0 0 1 11 16H5a2.53 2.53 0 0 1-2.52-2.322L1.337 4.5H.75a.75.75 0 0 1 0-1.5h3.664l.23-.917A2.75 2.75 0 0 1 7.312 0zm-4.72 13.493.005.044A1.03 1.03 0 0 0 5 14.5h6a1.03 1.03 0 0 0 1.027-.963l.005-.044 1.12-8.993H2.848zM7.312 1.5a1.25 1.25 0 0 0-1.213.947L5.96 3h4.08l-.139-.553A1.25 1.25 0 0 0 8.688 1.5z"/></svg>
